azure-patterns/svg-three-people.svg

<svg xmlns="http://www.w3.org/2000/svg" viewBox="0 0 48 48">
                                
                            
<path d="M45.7002 10H2.2002V37.7H45.7002V10Z" fill="#50E6FF"></path>
<path d="M8.6999 29.7001C11.0747 29.7001 12.9999 27.7749 12.9999 25.4001C12.9999 23.0253 11.0747 21.1001 8.6999 21.1001C6.32508 21.1001 4.3999 23.0253 4.3999 25.4001C4.3999 27.7749 6.32508 29.7001 8.6999 29.7001Z" fill="#0078D4"></path>
<path d="M8.7002 31.2C5.1002 31.2 2.2002 34.1 2.2002 37.7H15.3002C15.2002 34.1 12.3002 31.2 8.7002 31.2Z" fill="#0078D4"></path>
<path d="M24.3 29.7001C26.6748 29.7001 28.6 27.7749 28.6 25.4001C28.6 23.0253 26.6748 21.1001 24.3 21.1001C21.9252 21.1001 20 23.0253 20 25.4001C20 27.7749 21.9252 29.7001 24.3 29.7001Z" fill="#0078D4"></path>
<path d="M24.2998 31.2C20.6998 31.2 17.7998 34.1 17.7998 37.7H30.8998C30.7998 34.1 27.8998 31.2 24.2998 31.2Z" fill="#0078D4"></path>
<path d="M39.1999 29.7001C41.5747 29.7001 43.4999 27.7749 43.4999 25.4001C43.4999 23.0253 41.5747 21.1001 39.1999 21.1001C36.8251 21.1001 34.8999 23.0253 34.8999 25.4001C34.8999 27.7749 36.8251 29.7001 39.1999 29.7001Z" fill="#0078D4"></path>
<path d="M39.2002 31.2C35.6002 31.2 32.7002 34.1 32.7002 37.7H45.8002C45.7002 34.1 42.8002 31.2 39.2002 31.2Z" fill="#0078D4"></path>
</svg>

<svg xmlns="http://www.w3.org/2000/svg" viewBox="0 0 48 48"><path d="M45.7 10H2.2v27.7h43.5V10z" fill="#50E6FF"/><path d="M8.7 29.7a4.3 4.3 0 1 0 0-8.6 4.3 4.3 0 0 0 0 8.6zM8.7 31.2c-3.6 0-6.5 2.9-6.5 6.5h13.1c-.1-3.6-3-6.5-6.6-6.5zM24.3 29.7a4.3 4.3 0 1 0 0-8.6 4.3 4.3 0 0 0 0 8.6zM24.3 31.2c-3.6 0-6.5 2.9-6.5 6.5h13.1c-.1-3.6-3-6.5-6.6-6.5zM39.2 29.7a4.3 4.3 0 1 0 0-8.6 4.3 4.3 0 0 0 0 8.6zM39.2 31.2c-3.6 0-6.5 2.9-6.5 6.5h13.1c-.1-3.6-3-6.5-6.6-6.5z" fill="#0078D4"/></svg>
